!!!OTL: 633. Wolf und Lamm.
!!!COM: Volkston
!!!ODT: 18 Jahrh. (Ende)
!!!ARE: Europa, Mitteleuropa, Deutschland; France, Elsass
!!!SCT: B0633
!!!TXL: @@DE
!!!YEM: Copyright 1995, estate of Helmut Schaffrath.
**kern	**text
*ICvox	*
*Ivox	*
*clefG2	*
*M2/4	*
*k[b-]	*
*F:	*
!LO:TX:a:t=Etwas lebhaft.	!
{16fL	Ein
16aJ	.
=1	=1
8cc	Lämm-
8cc	-lein
16ccL	trank
16ffJ	.
16aL	vom
16ccJ	.
=2	=2
8b-	Fri-
8g	-ſchen
8r}	.
{8g	aus
=3	=3
16a/L	ei-
16ccJ	.
16aL	-nem
16fJ	.
16gL	küh-
16b-J	.
16gL	-len
16eJ	.
=4	=4
4f	Bach.
8r}	.
{16fL	Da
16aJ	.
=5	=5
8cc	kam
8cc	aus
16ccL	den
16ffJ	.
16aL	Ge-
16ccJ	.
=6	=6
8b-	-bü-
8g	-ſchen
8r}	.
{8g	ein
=7	=7
16a/L	Wolf
16ccJ	.
16aL	und
16fJ	.
16gL	ſchlich
16b-J	.
16gL	ihm
16eJ	.
=8	=8
4f	nach.
8r}	.
{8g	So
=9	=9
8a	ſprach
8cc	er
16ffL	ʒu
16ccJ	.
16b-L	dem
16aJ	.
=10	=10
8a	Lam-
8g	-me
8r}	.
{16fL	"Was
16gJ	.
=11	=11
8a	hab'
8cc	ich
16ffL	dir
16ccJ	.
16b-L	ge-
16aJ	.
=12	=12
(8aL	-than?
8gJ)	.
8r}	.
{16fL	Der
16aJ	.
=13	=13
8cc	Strom
8cc	iſt
16ccL	vol-
16ffJ	.
16aL	-ler
16ccJ	.
=14	=14
8b-	Schlam-
8g	-me,
8r}	.
{8b-	daß
=15	=15
16a/L	ich
16ccJ	.
16aL	nicht
16fJ	.
16gL	ſau-
16b-J	.
16gL	-fen
16eJ	.
=16	=16
4f	kann."
8r}	.
==	==
!!!AGN: Kinder - Lied, Tier; Moral
!!!GTL: Kinderlieder
!!!ONB: ESAC (Essen Associative Code) Database: BOEHME
!!!AMT: simple duple
!!!AIN: vox
!!!EED: Helmut Schaffrath
!!!EEV: 1.0
!!Volkston. Ende des 18. Jahrh.
!!@@COMMENT:"Gedicht aus dem Ende des 18. Jahrhunderts, angeblich von Miehl 1784. Jn Jugend-
!!ſchriften viel gedruckt und bis 1840 geſungen. Nach 1880 vielfach im Elſaß gehört und daber auch
!!gedruckt bei Mündel, Elſ. Volksl. Nr. 256. Jn Kinderbüchern bleibt mit Recht die moraliſirende Schlußſtrophe weg."
!!@@END:
!!!URL-scan: https://archive.org/details/BoehmeVtLieder1895/page/n497/mode/2up
!!!ENC: Anna Maria Matuszewska
!!!EEV: 2024/16/07
*-	*-
